public/images/d21.svg

<svg width="100" height="100" viewBox="0 0 100 100" fill="none" xmlns="http://www.w3.org/2000/svg">
<path d="M30.5509 99.9176C30.3733 99.9176 30.1957 99.8588 30.0773 99.6823L24.5119 92.3882V99.8H23.2094V90.6235C23.2094 90.2706 23.5054 89.9765 23.8607 89.9765C24.0383 89.9765 24.2159 90.0353 24.3935 90.2118L29.9589 97.5059V90.0941H31.2022V99.2118C31.2022 99.6235 30.9062 99.9176 30.5509 99.9176Z" fill="#1A1918"/>
<path d="M41.0895 99.9765C39.8462 99.9765 38.4845 99.7412 37.2411 99.2706L37.5372 98.2118C38.6621 98.5647 39.9054 98.8588 41.0895 98.8588C42.6881 98.8588 43.517 98.2706 43.517 97.5059C43.517 96.8 42.8657 96.3882 40.6159 95.3882C38.3661 94.3294 37.478 93.6824 37.478 92.3294C37.478 90.6824 38.7213 90.0353 41.1487 90.0353C42.1552 90.0353 43.6946 90.2118 44.5827 90.5059L44.405 91.5647C43.4578 91.3294 42.2144 91.1529 41.2079 91.1529C39.491 91.1529 38.8397 91.4471 38.8397 92.2706C38.8397 93.0353 39.3726 93.3882 41.7408 94.5059C44.2274 95.6824 44.8787 96.2118 44.8787 97.4471C44.8195 99.1529 43.2209 99.9765 41.0895 99.9765Z" fill="#1A1918"/>
<path d="M50.8585 90.1529H52.161V99.8588H50.8585V90.1529Z" fill="#1A1918"/>
<path d="M63.3509 95.4471H60.0946V98.7412H63.3509C64.4758 98.7412 65.1271 98.0353 65.1271 97.0941C65.1271 96.1529 64.4166 95.4471 63.3509 95.4471ZM62.6996 91.2706H60.0946V94.3882H62.6996C63.7653 94.3882 64.535 93.7412 64.535 92.8C64.535 91.8 63.8837 91.2706 62.6996 91.2706ZM63.3509 99.8588H59.4433C59.0881 99.8588 58.7921 99.5647 58.7921 99.2118V90.8C58.7921 90.4471 59.0881 90.1529 59.4433 90.1529H62.6996C64.7126 90.1529 65.8967 91.1529 65.8967 92.6824C65.8967 93.5059 65.4231 94.2706 64.6534 94.7412C65.7783 95.0941 66.4888 95.9765 66.4888 97.0941C66.4888 98.6235 65.1863 99.8588 63.3509 99.8588Z" fill="#1A1918"/>
<path d="M72.8238 99.8588C72.4686 99.8588 72.1725 99.5647 72.1725 99.2118V90.1529H73.4751V98.6824H78.6852V99.8588H72.8238Z" fill="#1A1918"/>
<path d="M87.6844 99.9765C85.0202 99.9765 83.3624 98.9765 83.3624 96.9765C83.3624 96.0353 83.8953 95.1529 84.961 94.6823C84.1321 94.1529 83.7177 93.3882 83.7177 92.6235C83.7177 90.8 85.1386 89.9765 87.7437 89.9765C88.6317 89.9765 89.8751 90.0941 90.8816 90.3294L90.7632 91.3882C89.6382 91.2118 88.6317 91.0941 87.6252 91.0941C85.9083 91.0941 85.0202 91.5647 85.0202 92.6823C85.0202 93.5647 85.8491 94.2706 86.974 94.2706H89.2238C89.5198 94.2706 89.8159 94.5059 89.8159 94.8C89.8159 95.0941 89.579 95.3882 89.2238 95.3882H86.7964C85.553 95.3882 84.7242 96.0353 84.7242 96.9765C84.7242 98.3882 86.0267 98.8 87.6844 98.8C88.5725 98.8 89.8159 98.6823 90.7632 98.4471L90.9408 99.5059C89.9935 99.8 88.7501 99.9765 87.6844 99.9765Z" fill="#1A1918"/>
<path d="M13.4404 91.9765L15.7495 97.6823L12.2563 94.9176L13.4404 91.9765ZM17.5256 99.0353L13.9733 90.4471C13.8549 90.2118 13.6773 90.0941 13.4404 90.0941C13.2036 90.0941 12.9668 90.2118 12.8484 90.4471L8.9408 99.8588H10.2433L11.7827 95.9765L16.4007 99.7412C16.5783 99.9176 16.6968 99.9765 16.8744 99.9765C17.2296 99.9765 17.5256 99.7412 17.5256 99.3294C17.5848 99.2118 17.5848 99.0941 17.5256 99.0353Z" fill="#1A1918"/>
<path d="M91 40.6471C91 63.1176 72.7054 81.2941 50.0888 81.2941C27.4722 81.2941 9.17761 63.1176 9.17761 40.6471C9.17761 18.1765 27.4722 0 50.0888 0C72.6462 0 91 18.1765 91 40.6471Z" fill="#1A1918"/>
<path d="M50.7401 24.8235L61.3379 50.7647L45.3524 38.2353L50.7401 24.8235ZM69.5675 56.7647L53.2859 17.8235C52.8123 16.7059 51.865 16.1176 50.7401 16.1176C49.6152 16.1176 48.6087 16.7059 48.135 17.8235L30.3141 60.5294H36.4123L43.517 42.9412L64.6534 59.8824C65.4823 60.5882 66.1336 60.8824 66.9033 60.8824C68.5018 60.8824 69.8635 59.7059 69.8635 58C69.8635 57.7059 69.7451 57.2353 69.5675 56.7647Z" fill="white"/>
</svg>

<svg xmlns="http://www.w3.org/2000/svg" width="100" height="100" fill="none"><path fill="#1A1918" d="M30.55 99.918a.54.54 0 0 1-.473-.236l-5.565-7.294V99.8h-1.303v-9.176c0-.353.296-.647.652-.647.177 0 .355.058.532.235l5.566 7.294v-7.412h1.243v9.118c0 .412-.296.706-.651.706M41.09 99.977c-1.244 0-2.606-.236-3.849-.706l.296-1.06c1.125.354 2.368.648 3.553.648 1.598 0 2.427-.588 2.427-1.353 0-.706-.651-1.118-2.901-2.118-2.25-1.059-3.138-1.706-3.138-3.059 0-1.647 1.243-2.294 3.67-2.294 1.007 0 2.547.177 3.435.47l-.178 1.06c-.947-.236-2.19-.412-3.197-.412-1.717 0-2.368.294-2.368 1.118 0 .764.533 1.117 2.9 2.235 2.487 1.176 3.139 1.706 3.139 2.941-.06 1.706-1.658 2.53-3.79 2.53M50.859 90.153h1.302v9.706h-1.303zM63.35 95.447h-3.255v3.294h3.256c1.125 0 1.776-.706 1.776-1.647s-.71-1.647-1.776-1.647m-.65-4.176h-2.605v3.117H62.7c1.065 0 1.835-.647 1.835-1.588 0-1-.651-1.53-1.835-1.53m.65 8.588h-3.907a.655.655 0 0 1-.65-.647V90.8c0-.353.295-.647.65-.647H62.7c2.013 0 3.197 1 3.197 2.53 0 .823-.474 1.588-1.244 2.058 1.125.353 1.836 1.236 1.836 2.353 0 1.53-1.303 2.765-3.138 2.765M72.824 99.859a.655.655 0 0 1-.651-.647v-9.06h1.302v8.53h5.21v1.177zM87.684 99.977c-2.664 0-4.322-1-4.322-3 0-.942.533-1.824 1.599-2.295-.829-.53-1.243-1.294-1.243-2.058 0-1.824 1.42-2.647 4.026-2.647.888 0 2.131.117 3.138.352l-.119 1.06c-1.125-.177-2.131-.295-3.138-.295-1.717 0-2.605.47-2.605 1.588 0 .883.83 1.589 1.954 1.589h2.25c.296 0 .592.235.592.529a.59.59 0 0 1-.592.588h-2.428c-1.243 0-2.072.647-2.072 1.588 0 1.412 1.303 1.824 2.96 1.824.889 0 2.132-.118 3.08-.353l.177 1.059c-.948.294-2.19.47-3.257.47M13.44 91.977l2.31 5.705-3.494-2.764zm4.086 7.058-3.553-8.588q-.177-.353-.533-.353a.65.65 0 0 0-.592.353L8.941 99.86h1.302l1.54-3.882L16.4 99.74c.177.177.296.236.473.236.356 0 .652-.236.652-.648.059-.117.059-.235 0-.294M91 40.647c0 22.47-18.295 40.647-40.911 40.647-22.617 0-40.911-18.176-40.911-40.647C9.178 18.177 27.472 0 50.088 0 72.647 0 91 18.177 91 40.647"/><path fill="#fff" d="m50.74 24.824 10.598 25.94-15.986-12.529zm18.827 31.94-16.281-38.94c-.474-1.118-1.421-1.706-2.546-1.706s-2.131.588-2.605 1.706l-17.82 42.705h6.097l7.105-17.588 21.136 16.941c.83.706 1.48 1 2.25 1 1.599 0 2.96-1.176 2.96-2.882 0-.294-.118-.765-.296-1.235"/></svg>
